!!!COM: Grieg, Edvard
!!!CDT: 1843/06/15/-1907/09/04/
!!!OPR: Poetic Tone-Pictures, Op. 3
!!!ODT: 1863///
!!!OPS: Op. 3
!!!ONM: No. 4
!!!OMD: Andante con sentimento
**kern	**kern	**dynam
*staff2	*staff1	*staff1/2
*clefF4	*clefG2	*clefG2
*k[f#c#g#]	*k[f#c#g#]	*k[f#c#g#]
*A:	*A:	*A:
*M2/2	*M2/2	*M2/2
*MM120	*MM120	*MM120
=1-	=1-	=1-
8AA'\L	4r	.
(8A\	.	.
8c#\	(4cc#\	p
8E\J)	.	.
8r	[2g#^/)	.
(8B\L	.	.
8d\	.	.
8Fn\J)	.	.
=2	=2	=2
8r	(8g#/L]	.
(8A\L	8a/	.
8c#\	8e/	.
8E\J)	8cc#/J	.
8r	2g#/)	.
(8B\L	.	.
8d\	.	.
8Fn\J)	.	.
=3	=3	=3
8AA'\L	8r	.
(8A\	(8a\L	<
8c#\	8ee\	.
8E\J)	8a\J)	.
8r	8r	.
(8A#\L	8g#\L	.
8c#\	8ee\	.
8E\J)	8g#\J	.
=4	=4	=4
8r	8r	.
8B\L	(8gn\L	.
8c#\	8ee\	.
&(8E\J&)	8g\J)	.
8EE'\L	8r	.
8B\	(8g\L	>
8c#\	8ee\	.
&(8E\J&)	(8g\J)	.
=5	=5	=5
*^	*	*
2r	8FF#'\L	8gn/L)	<
.	(8B\	8g/	.
.	8e\	8f#/	.
.	8A#\J)	8cc#/J	.
8r	8BB'\L	[2dd^\	.
4Gn^/	(8Gn\	.	.
.	8d\	.	.
8F#/)	8F#\J	.	.
=6	=6	=6	=6
2r	8FF#'\L	(12dd/L]	.
.	.	12gn/	.
.	(8c#\	.	.
.	.	12f#/J	.
.	8e\	12cc#\L	.
.	.	12ee\	.
.	8A#\J)	.	.
.	.	12dd\J	.
8r	8BB'\L	8b'\)	<
(4Gn^/	8Gn\	(4cc#^\	.
.	8d\	.	.
8F#/)	8F#\J	[8dd\)	.
*v	*v	*	*
=7	=7	=7
(8BB'\L	8dd\]	.
8G#\	4dd#\	.
8dn\	.	.
8E\J)	4ee\	.
8BB#'\L	.	.
(8A#\	4ee#\	.
8en\	.	.
8G#\J)	[8ff#\	.
=8	=8	=8
*	*^	*
8C#'\L	2r	8ff#\]	.
(8A#\	.	4ff##\	.
8e\	.	.	.
8F#\J)	.	[8gg#^\	.
8BBn'\L	4gg#/_	8r	.
(8An\	.	4.an\	.
8e^\	8gg#/L]	.	.
8d#\J)	[8ff#/J	.	.
=9	=9	=9	=9
8EE'\L	4ff#/]	8ff#\	.
(8B\	.	[4.g#^\	.
8e\	8gg#/L	.	.
8dn\J	8ff#/J	.	.
8c#\L	8ee/L	4g#\]	.
8B\	8dd/	.	.
8A\	8fn/	[8fn\L	.
8G#\J)	8cc#/J	8dn\ 8f\J]	.
*	*v	*v	*
=10	=10	=10
8AA'\L	4c#/ (4b/	.
(8E\	.	.
8c#\	2a/)	>
8A\J	.	.
8E/L	.	.
8C#/	.	.
8AA/	4r	.
8EE/J)	.	.
=11	=11	=11
8AAA'/L	4r	.
(8A\	.	.
8c#\	4a/	pp
8E\J)	.	.
8r	[2b-\	.
(8B-\L	.	.
8d\	.	.
8Fn\J)	.	.
=12	=12	=12
8r	8b-\L]	.
(8B-\L	8b-\	.
8d\	8.ffn\	.
8Fn\J)	.	.
.	16a\Jk	.
8r	(4a/	.
(8Bn\L	.	.
8d\	4g#/)	.
8F\J)	.	.
=13	=13	=13
8r	8r	.
(8A\L	4a/	<
8c#\	.	.
8E\J)	8a/	.
8GGn'\L	(4ccn\	>
(8B-\	.	.
8d\	8b-\)	.
8D\J)	8r	.
=14	=14	=14
8r	8r	.
(8c-\L	(8b-\L	<
8d\	8.ffn^\	.
8D\J)	.	.
.	16ee\Jk)	.
8r	2ee\	.
(8B\L	.	.
8d\	.	.
8D\J)	.	.
=15	=15	=15
8AA'\L	8r	.
(8A\	(8a^\L	.
8d\	8.ffn\	.
8D\J)	.	.
.	16ee\Jk)	.
8r	2ee\	.
(8A\L	.	.
8d\	.	.
8D\J)	.	.
=16	=16	=16
8BB-'\L	8r	.
(8Gn\	(8gn\L	.
8d\	8.ffn\	.
8D\J)	.	.
.	16ee\Jk)	.
8r	2ee\	.
(8G\L	.	.
8d\	.	.
8D\J)	.	.
=17	=17	=17
*	*^	*
8BBn'\L	8r	8r	.
(8Fn\	(8g#/L	4.g#\	f
8d\	12ggn^/	.	.
.	12ff#/	.	.
8D\J)	.	.	.
.	12ee^/J	.	.
8r	2ee/	2g#\)	.
(8E\L	.	.	.
8d\	.	.	.
8D\J)	.	.	.
=18	=18	=18	=18
8EE'\L	8r	8r	.
(8B\	8g#/L	[4.g#\	ff
8e\	8gg#/	.	.
8d\J	8ff#/J	.	.
8c#\	8ee/L	4g#\]	.
4B\	8dd/	.	>
.	8fn/	4fn\	.
8A\	8b/J	.	.
=19	=19	=19	=19
8G#\L	8e/L	2r	.
8F#\	8d/ 8a/	.	.
8E\	8c#/	.	.
8D\J	8B^/ [8e^/J	.	.
8C#/	2e/]	4.A\	.
4FF#/	.	.	.
8GG#/)	.	8B\	.
=20	=20	=20	=20
8AA'\L	8e/	8c#\	.
(8A\	8r	8r	.
8c#\	4r	(4cc#\	.
8E\J)	.	.	.
8r	2r	[2g#^/)	.
(8B\L	.	.	.
8d\	.	.	.
8Fn\J)	.	.	.
*	*v	*v	*
=21	=21	=21
8r	(8g#/L]	.
(8A\L	8a/	.
8c#\	8e/	.
8E\J)	8cc#/J	.
.	g#q/LL	.
.	aq/	.
.	bq/JJ	.
8r	(8a/)	.
(8B\L	4.g#/)	.
8d\	.	.
8Fn\J)	.	.
=22	=22	=22
8AA\L	8r	.
(8A\	(8a\L	<
8c#\	8ee\	.
8E\J)	8a\J)	.
8r	8r	.
(8A#\L	(8g#\L	.
8c#\	8ee\	.
&(8E\J&))	8g#\J)	.
=23	=23	=23
8r	8r	.
(8B\L	(8gn\L	.
&(8c#\&)	8ee\	.
8E\J	8g\J)	.
8EE'/L	8r	.
(8B\)	(8g\L	.
8c#\	8ee\	.
8E\J)	[8g\J)	.
=24	=24	=24
*^	*	*
2r	8FF#'\L	8g/L]	p
.	(8B\	8gn/	.
.	8e\	8f#/	.
.	8A#\J)	8cc#/J	.
8r	8BB'\L	[2dd^\	.
(4Gn^/	8Gn\	.	.
.	8d\	.	.
8F#/)	8F#\J	.	.
=25	=25	=25	=25
2r	8FF#'\L	(12dd/L]	.
.	.	12gn/	.
.	(8B\	.	.
.	.	12f#/J	.
.	8e\	12cc#\L	.
.	.	12ee\	.
.	8A#\J)	.	.
.	.	12dd\J	.
8r	8BB'\L	8b'\	.
(4Gn^/	8Gn^\	(4cc#^\)	.
.	8d\	.	.
8F#/)	8F#\J	8dd\)	.
*v	*v	*	*
=26	=26	=26
8BB'\L	8r	.
8G#\	(4dd#^\	<
8dn\	.	.
8E\J	8ee\)	.
8BB#'\L	8r	.
8A#\	(4ee#^\	.
8en\	.	.
8Gn\J	8ff#\)	.
=27	=27	=27
*	*^	*
8C#'\L	8r	2r	.
(8A#\	(4ff##^/	.	.
8e\	.	.	.
8F#\J)	[8gg#^/)	.	.
8BBn'\L	4gg#/_	8r	.
(8An\	.	4.an\	.
8e\	8gg#/L]	.	.
8d#\J)	[8ff#/J	.	.
=28	=28	=28	=28
8EE'\L	4ff#/]	8r	f
(8B\	.	[4.g#\	>
8e\	8gg#/L	.	.
8dn\J	8ff#/J	.	.
8c#\L	8ee/L	4g#\]	.
8B\	8dd/	.	.
8A\	8fn^/	[8fn\L	.
8G#\J)	8cc#/J	8dn\ 8f\J]	.
*	*v	*v	*
=29	=29	=29
(8AA'\L	4c#/ (4b/	p
8E\	.	.
8c#\	2a/)	.
8A\J	.	.
8E/L	.	.
8C#/	.	.
8AA/	4r	.
8EE/J)	.	.
=30	=30	=30
8AAA'/L	4r	.
(8A\	.	.
8c#\	4a/	pp
8E\J)	.	.
8r	[2b-\	.
(8B-\L	.	.
8d\	.	.
&(8Fn\J&))	.	.
=31	=31	=31
8r	8b-\L]	.
(8B-\L	8b-\	.
8d\	8.ffn\	.
8Fn\J)	.	.
.	16a\Jk	.
8r	(4a/	.
(8Bn\L	.	.
8d\	4g#/)	.
8F\J)	.	.
=32	=32	=32
8r	8r	.
(8A\L	4a/	<
8c#\	.	.
8E\J)	8a/	.
8GGn'\L	(4ccn\	>
(8B-\	.	.
8d\	8b-\)	.
8D\J)	8r	.
=33	=33	=33
8r	8r	.
(8B-\L	(8b-\L	<
8d\	8.ffn^\	.
8D\J)	.	.
.	16ee\Jk)	.
8r	2ee\	.
(8B-\L	.	.
8d\	.	.
8D\J)	.	.
=34	=34	=34
8AA'\L	8r	.
(8A\	(8a^\L	.
8d\	8.ff#\	.
8D\J)	.	.
.	16ee\Jk)	.
8r	2ee\	.
(8A\L	.	.
8d\	.	.
8D\J)	.	.
=35	=35	=35
8BB-'\L	8r	.
(8Gn\	(8gn\L	.
8d\	8.ffn\	.
8D\J)	.	.
.	16ee\Jk)	.
8r	2ee\	.
(8G\L	.	.
8d\	.	.
8D\J)	.	.
=36	=36	=36
*	*^	*
8BBn'\L	8r	8r	.
(8Fn\	(8g#/L	4.g#\	f
8d\	12ggn^/	.	.
.	12ffn^/	.	.
8D\J)	.	.	.
.	12ee^/J	.	.
8r	2ee/	2g#\)	.
(8E\L	.	.	.
8d\	.	.	.
8D\J)	.	.	.
=37	=37	=37	=37
8EE'\L	8r	8r	.
(8B\	8g#/L	[4.g#\	ff
8e\	8gg#/	.	.
8d\J	8ff#/J	.	.
8c#\	8ee/L	4g#\]	.
4B\	8dd/	.	>
.	8fn/	4fn\	.
8A\	8b/J	.	.
=38	=38	=38	=38
8G#\L	8e/L	2r	.
8F#\	8d/ 8a/	.	.
8E\	8c#/	.	.
8D\J	8B^/ [8e^/J	.	.
8C#/	2e/_	4.A\	.
4FF#/	.	.	.
8GG#/	.	8B\	.
=39	=39	=39	=39
8AA'\L)	8e/]	8c#\	.
(8A\	8r	8r	.
8c#\	4cc#\	4r	.
8E\J)	.	.	.
8r	&([2g#^/&)	2r	.
8B\L	.	.	.
8d\	.	.	.
8Fn\J	.	.	.
*	*v	*v	*
=40	=40	=40
8r	8g#/L]	.
(8A\L	(8a/	.
8c#\	8e/	.
8E\J)	8cc#/J	.
.	g#q/LL	.
.	aq/	.
.	bq/JJ	.
8r	(8a/)	.
(8B\L	4.g#/)	.
8d\	.	.
8Fn\J)	.	.
=41	=41	=41
8AA\L	8r	.
(8A\	(8a\L	<
8c#\	8ee\	.
8E\J)	8a\J)	.
8r	8r	.
(8A#\L	(8g#\L	.
8c#\	8ee\	.
8E\J)	8g#\J)	.
=42	=42	=42
8r	8r	.
(8B\L	(8gn\L	.
8c#\	8ee\	.
8E\J	8g\J)	.
8EE/L)	8r	.
(8B\	(8g\L	>
8c#\	8ee\	.
8E\J)	[8g\J)	.
=43	=43	=43
*^	*	*
2r	8FF#'\L	8g/L]	p
.	(8B\	8gn/	.
.	8e\	8f#/	.
.	8A#\J)	8cc#/J	.
8r	8BB'\L	[2dd^\	.
(4Gn^/	8Gn^\	.	.
.	8d\	.	.
8F#/	8F#\J)	.	.
=44	=44	=44	=44
2r	8FF#'\L	12dd/L]	.
.	.	12gn/	.
.	(8B\	.	.
.	.	12f#/J	.
.	8e\	12cc#\L	.
.	.	12ee\	.
.	8A#\J)	.	.
.	.	12dd\J	.
8r	8BB'\L	8b\	.
(4Gn^/	8Gn^\	(4cc#^\	.
.	8d\	.	.
8F#/)	8F#\J	8dd\)	<
*v	*v	*	*
=45	=45	=45
8BB'\L	8r	.
8G#\	(4dd#^\	.
8d\	.	.
8E\J	8ee\)	.
8BB#'\L	8r	.
(8A#\	(4ee#^\	.
8en\	.	.
8Gn\J)	8ff#\)	.
=46	=46	=46
*	*^	*
8C#'\L	2r	8r	.
(8A#\	.	(4ff##^\	.
8e\	.	.	.
8F#\J)	.	[8gg#^\)	.
8BB'\L	4gg#/_	8r	.
(8An\	.	4.an\	.
8e\	8gg#/L]	.	.
8d#\J)	[8ff#/J	.	.
=47	=47	=47	=47
8EE'\L	4ff#/]	8ff#\	f
8B\	.	[4.g#^\	>
8e\	8gg#/L	.	.
8dn\J	8ff#/J	.	.
8c#\L	8ee/L	4g#\]	.
8B\	8dd/	.	.
8A\	8fn^/	[8fn\L	.
8G#\J	8cc#/J	8dn\ 8f\J]	.
*	*v	*v	*
=48	=48	=48
(8AA'\L	4c#/ (4b/	p
8E\	.	.
8c#\	2a/)	.
8A\J	.	.
8E/L	.	.
8C#/	.	.
8AA/	4r	.
8EE/J)	.	.
=49	=49	=49
8AAA/	2r	.
8r	.	.
4r	.	.
&(4C#'\&) 4E'\ 4c#'\	4a'\ (4aa'\	pp
4r	4r	.
=50	=50	=50
2C#'\ 2E'\ 2c#'\	2a'\ 2aa'\)	.
2r	2r	.
==	==	==
*-	*-	*-
!!!ENC: Craig Stuart Sapp
!!!END: 2008/07/16/
